/*
  @title   80s Synth Test
  @by      seed from strudel docs
  @version 0.1
  @license CC BY-NC-SA
  @url     https://sarefo.github.io/strudel
  @details    
  @stage   [ ] published [ ] building [x] test
*/

$: note("<[c2 c3]*4 [bb1 bb2]*4 [f2 f3]*4 [eb2 eb3]*4>")
.sound("gm_synth_bass_1").lpf(800)

$: n(`<
[~ 0] 2 [0 2] [~ 2]
[~ 0] 1 [0 1] [~ 1]
[~ 0] 3 [0 3] [~ 3]
[~ 0] 2 [0 2] [~ 2]
>*4`).scale("C4:minor")
.sound("gm_synth_strings_1")

$: sound("bd*4, [~ <sd cp>]*2, [~ hh]*4")
.bank("RolandTR909")
