/*
  @title   80s Synth Test
  @by      Seed from strudel docs - Remix by sarefo
  @version 0.1
  @license CC BY-NC-SA
  @url     https://sarefo.github.io/strudel
  @details    
  @stage   [ ] published [ ] building [x] test
*/

setcpm(120 / 4)

let scale = "c4:minor"

$: note("<[c2 c3]*4 [bb1 bb2]*4 [f2 f3]*4 [eb2 eb3]*4>")
    .sound("gm_synth_bass_1").lpf(800)

$: n(`<
[~ 0] 2 [0 2] [~ 2]
[~ 0] 1 [0 1] [~ 1]
[~ 0] 3 [0 3] [~ 3]
[~ 0] 2 [0 2] [~ 2]
>*4`).scale(scale)
    .sound("gm_synth_strings_1")
    .lpf("<400 800 1200 1600>")

$: sound("bd*4, [~ <sd cp>]*2, [~ hh]*4")
    .bank("RolandTR909")

// all(x => x.lpf(mousex.segment(4).range(200,2800)))
// all(x => x.hpf(mousey.segment(4).range(2800, 200)))