// @title Googoosh @by sarefo

samples('github:sarefo/strudel')
      

$: // googoosh loop 
n("0")
  .sound("googoosh")
  .note("c2") // tune sample
  //.cut(1)
  .loopAt(4)
  .gain(.4)
//.hush()

$:
  s("[bongo*4 bongo*4 bongo*4 [- - - oh*2]]/4")
  .gain("<12 12 12 .2 >")
