/*
  @title   Hello world
  @by      sarefo
  @version 0.1
  @licence CC BY-NC-SA
  @url     https://sarefo.github.io/strudel
  @info    
  @stage   [ ] published [ ] building [ ] test
*/

samples('github:sarefo/strudel')
//samples('shabda/speech/ru-RU/m:один,два,три,четыре')
//samples('http://localhost:5432');

let scale = "c:minor"

let sound1 =
  n("[0 1 2 3]/4").sound("sklavenmacht")

let part1 = stack (
  sound1  
)

arrange (
  [4, part1]
)
.spectrum()
