// @title Korobeiniki Test 2025-06-25

//setcpm(slider(20,20,100))
setcpm(45)

$: note(`[[e5 [b4 c5] d5 [c5 b4]]
[a4 [a4 c5] e5 [d5 c5]]
[b4 [~ c5] d5 e5]
[c5 a4 a4 ~]
[[~ d5] [~ f5] a5 [g5 f5]]
[e5 [~ c5] e5 [d5 c5]]
[b4 [b4 c5] d5 e5]
[c5 a4 a4 ~]],
[[e2 e3]*4]
[[a2 a3]*4]
[[g#2 g#3]*2 [e2 e3]*2]
[a2 a3 a2 a3 a2 a3 b1 c2]
[[d2 d3]*4]
[[c2 c3]*4]
[[b1 b2]*2 [e2 e3]*2]
[[a1 a2]*4]`)
  .slow(8)
  .sound("sawtooth")
  //.attack(0)
  //.sustain(.5)
  //.release("<1 .9 .8 .7 .6 .5 .4 .3>/2")
  .lpf("<800 1000 1200 1400 1600 1800 2000 2200>/2")
  .distort("<0 .1 .2 .3 .4 .5 .6 .7 .8 1 1.2 1.4 1.6 1.8 2 2.2>")
  //.sound("gm_synth_strings_1")
  //.freq(rand.range(200,400))
  .room("<3 2 1 0>/4")
// [a2 a3 a2 a3 a2 a3 b1 c2]

//samples('shabda/speech/ru-RU/m:ноль,два,три,четыре')
samples('github:sarefo/strudel')

$: // 1-4 in Russian
  n("[3 2 1 0]/4")
  .sound("russian")
  .begin("[0 .2 .1 .1]/4")
  //.early("[0 .2 .1 .1]/4")
  .distort(rand.range(1.5, 3.0))
  .gain(.4)
  .freq(rand.range(66,80))
  .sometimesBy(.2, x =>x.freq(100))
  .room(rand.range(0.8,2))
  //.rev()

_$: n("[1 2 3 4]/4")
  .sound("numbers")
  //.off(-2/16, x => x.add(1))
  .distort(rand.range(1.5, 3.0))
  .gain(.4)
  .freq(rand.range(66,80))
  .sometimesBy(.2, x =>x.freq(100))
  .room(rand.range(0.8,2))
  //.freq(rand.range(200,300)).ribbon("<2 4 8>",4)

_$: sound("< <<bd hh> hh hh hh>*4 <bd <hh hh*2> hh hh>*4 <bd hh <hh -> hh>*4 [bd bd bd [<bd hh> bd]] >").bank("rolandtr808")
   .gain(2)
   //.vowel("<a e>")
   .distort(4)
   .room(2)
   //.delay(.5)


//$: n()
//0 1 2 3 4 5 6 7
//c d e f g a b
