// @title Korobeiniki Test 2025-06-25

setcpm(90/2)

$: note(`[[e5 [b4 c5] d5 [c5 b4]]
[a4 [a4 c5] e5 [d5 c5]]
[b4 [~ c5] d5 e5]
[c5 a4 a4 ~]
[[~ d5] [~ f5] a5 [g5 f5]]
[e5 [~ c5] e5 [d5 c5]]
[b4 [b4 c5] d5 e5]
[c5 a4 a4 ~]],
[[e2 e3]*4]
[[a2 a3]*4]
[[g#2 g#3]*2 [e2 e3]*2]
[a2 a3 a2 a3 a2 a3 b1 c2]
[[d2 d3]*4]
[[c2 c3]*4]
[[b1 b2]*2 [e2 e3]*2]
[[a1 a2]*4]`)
  .slow(8)
  .sound("gm_synth_strings_1")
  //.freq(rand.range(200,400))
  //.room(0.1)
// [a2 a3 a2 a3 a2 a3 b1 c2]

//$: note(`
// [[2 []]]
//`)

$: sound("bd hh hh oh")
  .freq(rand.range(200,300)).ribbon("<2 4 8>",4)

$: n()
//0 1 2 3 4 5 6 7
//c d e f g a b
